images/icons/icon-music.svg

<svg fill="none" height="16" viewBox="0 0 16 16" width="16" xmlns="http://www.w3.org/2000/svg"><g stroke="#495eca" stroke-linecap="round" stroke-linejoin="round"><path d="m5.5 13v-10.83333l10-1.66667v10.8333"/><path d="m3 15.5c1.38071 0 2.5-1.1193 2.5-2.5s-1.11929-2.5-2.5-2.5-2.5 1.1193-2.5 2.5 1.11929 2.5 2.5 2.5z"/><path d="m13 13.8333c1.3807 0 2.5-1.1193 2.5-2.5 0-1.38068-1.1193-2.49996-2.5-2.49996s-2.5 1.11928-2.5 2.49996c0 1.3807 1.1193 2.5 2.5 2.5z"/></g></svg>

<svg width="16" height="16" viewBox="0 0 16 16" fill="none" xmlns="http://www.w3.org/2000/svg">
<path d="M5.5 13V2.16667L15.5 0.5V11.3333" stroke="#495ECA" stroke-linecap="round" stroke-linejoin="round"/>
<path d="M3 15.5C4.38071 15.5 5.5 14.3807 5.5 13C5.5 11.6193 4.38071 10.5 3 10.5C1.61929 10.5 0.5 11.6193 0.5 13C0.5 14.3807 1.61929 15.5 3 15.5Z" stroke="#495ECA" stroke-linecap="round" stroke-linejoin="round"/>
<path d="M13 13.8333C14.3807 13.8333 15.5 12.714 15.5 11.3333C15.5 9.95262 14.3807 8.83334 13 8.83334C11.6193 8.83334 10.5 9.95262 10.5 11.3333C10.5 12.714 11.6193 13.8333 13 13.8333Z" stroke="#495ECA" stroke-linecap="round" stroke-linejoin="round"/>
</svg>
